src/assets/logo-sm.svg

<svg xmlns="http://www.w3.org/2000/svg" width="99.12" height="99.29" viewBox="0 0 99.12 99.29"><defs><style>.cls-1{fill:#ff7415;}.cls-2,.cls-3{fill:#3f3131;}.cls-3{fill-rule:evenodd;}</style></defs><g id="Layer_2" data-name="Layer 2"><g id="Layer_1-2" data-name="Layer 1"><path class="cls-1" d="M94,43.18H56V5.12H94ZM99.11,0H50.86V48.31H99.11Z"/><path class="cls-2" d="M94,94.18H56V56.08H94ZM99.12,51H50.86v48.3H99.11Z"/><path class="cls-1" d="M43.1,94.18H5.1V28.82h38Zm5.12-70.46H0V99.29H48.22Z"/><path class="cls-3" d="M72.91,77.92l-1.18,7.67h6.69L77,77.92a5.89,5.89,0,0,0,4-5.74c0-4.53-3.2-6.1-6.1-6.1A6,6,0,0,0,68.78,72c0,.14,0,.28,0,.42,0,4.29,4,5.39,4.14,5.51"/></g></g></svg>

<?xml version="1.0" encoding="utf-8"?>
<!-- Generator: Adobe Illustrator 24.1.2, SVG Export Plug-In . SVG Version: 6.00 Build 0)  -->
<svg version="1.1" id="Layer_1" xmlns="http://www.w3.org/2000/svg" xmlns:xlink="http://www.w3.org/1999/xlink" x="0px" y="0px"
	 viewBox="0 0 99.1 99.3" style="enable-background:new 0 0 99.1 99.3;" xml:space="preserve">
<style type="text/css">
	.st0{fill:#FF4828;}
	.st1{fill:#3F3131;}
	.st2{fill-rule:evenodd;clip-rule:evenodd;fill:#3F3131;}
</style>
<g id="Layer_2_1_">
	<g id="Layer_1-2">
		<path class="st0" d="M94,43.2H56V5.1h38V43.2z M99.1,0H50.9v48.3h48.3V0z"/>
		<path class="st1" d="M94,94.2H56V56.1h38V94.2z M99.1,51H50.9v48.3h48.3L99.1,51z"/>
		<path class="st0" d="M43.1,94.2h-38V28.8h38V94.2z M48.2,23.7H0v75.6h48.2L48.2,23.7z"/>
		<path class="st2" d="M72.9,77.9l-1.2,7.7h6.7L77,77.9c2.4-0.8,4.1-3.2,4-5.7c0-4.5-3.2-6.1-6.1-6.1c-3.3-0.1-6.1,2.6-6.1,5.9
			c0,0,0,0,0,0c0,0.1,0,0.3,0,0.4C68.8,76.7,72.8,77.8,72.9,77.9"/>
	</g>
</g>
</svg>
